packages/icons/svg/Fill/arrow-right-up.svg

<svg width="24" height="24" viewBox="0 0 24 24" fill="none" xmlns="http://www.w3.org/2000/svg">
<g id="Icon/Fill/arrow-right-up">
<path id="Mask" fill-rule="evenodd" clip-rule="evenodd" d="M17.9932 7.04882C17.9932 6.49982 17.5493 6.05282 16.9993 6.04982L9.00625 5.99982H9.00025C8.45025 5.99982 8.00425 6.44382 8.00025 6.99382C7.99625 7.54582 8.44125 7.99682 8.99425 7.99982L14.5522 8.03482L6.29325 16.2928C5.90225 16.6838 5.90225 17.3168 6.29325 17.7068C6.48825 17.9028 6.74425 17.9998 7.00025 17.9998C7.25625 17.9998 7.51225 17.9028 7.70725 17.7068L15.9952 9.41882L16.0002 15.0008C16.0002 15.5528 16.4482 15.9998 17.0002 15.9998H17.0013C17.5533 15.9998 18.0002 15.5508 18.0002 14.9988L17.9932 7.04882Z" fill="#000000"/>
</g>
</svg>

<svg fill="none" height="24" viewBox="0 0 24 24" width="24" xmlns="http://www.w3.org/2000/svg"><path clip-rule="evenodd" d="m17.9932 7.04876c0-.549-.444-.996-.994-.999l-7.993-.05h-.006c-.55 0-.996.444-1 .994-.004.552.441 1.003.994 1.006l5.558.035-8.259 8.25804c-.391.391-.391 1.024 0 1.414.195.196.451.293.707.293s.512-.097.707-.293l8.288-8.28804.005 5.58204c0 .552.448.999 1 .999h.001c.552 0 .999-.449.999-1.001z" fill="#6b7280" fill-rule="evenodd"/></svg>
